X:55
T:Limerick Rake, The
T:Fa/gaimi/d siu/d mar ata/ se/
S:irtrad-l, 5/97, Jerome Colburn
N:Ewan MacColl wrote "Champion at Keepin' 'Em Rollin'" to this tune
M:6/8
K:ADor
A | AcB AGA | cde a2 e/f/ | ged cBc | dBA G2 A | AcB AGA | cde a2 e/f/ |
gec dcB | A A2-A2 e |
eaa aba | gef g2 a | aed cBc | dBA G2 c/B/ | AcB AGA | cde a2 e/f/ |
gec dcB | A A2-A2 ||**
